X:1
T:One Night as I Lay on my Bed
M:6/4
L:1/4
K:F
 F| G f d d| c- B A2| G3 G| c B cd/2-e/2| f2 e2| d2 d c|
M:6/4
 B c g2 f e| d c f2 d2| c B A G G- F| z F/2F/2 G- f d d| c B A A G3|\
||
